X: 209
T:Im Rotzim
O:Greece-Israel
F: http://www.youtube.com/watch?v=zaKmHUdcp6I
F: http://www.youtube.com/watch?v=HlL5A0ya9Kw
M:2/4
L:1/8
Q:1/4=130
K:EMin
%%MIDI gchord zzfz
 E<^D"c"E<C|E<^D"c"E<C  | E<^D"e"E<B,|E<^D"e"E<B,|\
 E<^D"b"E<F|G<G"b"F<F   |E<E"g"D<D   |C<B,-"e"B,z|
 E<^D"c"E<C|E<^D"c"E<C  | E<^D"e"E<B,|E<^D"e"E<B,|\
^D<E"b"E<F |G<B"e"A<G   |E<E"a"^D<^C |^D<E"e"z2  |
%%MIDI gchordoff
 G2F2      |E2B,2-      |B, G2F      |E2 B,2     |\
 z D2 D    |D2E2        |CB,3        |z4         |
 G2F2      |E2B,2-      |B, G2F      |E2 B,2     |\
 F2 GA     |B4          |G2F2        |E4         |
%%MIDI gchordon
 z2"e"EF   |G2 "e"G2    | G2 "e"FG   |A4-        |A2 "e"^DE|\
 F2 "b"F2  | "B"F2 "e"EF| G4-        |G2 "e"B,^C |
 E2 "e"E2  |E2 "e"FE    |"b"^D4-     |^D2 "e"EF  |\
 A2 "a"A2  | B2 "c"c2   | B2 "e"G2   |E2 "e"B2   |\
 A2 "b"F2  | E2 "B"F2   |"e"G4-      |
|G2 "e"EF  | A2 "a"A2   | B2 "c"c2   | B2 "e"G2  |\
 E2 "e"B2  |GF "e"E2    |"a"^C4      | "b"_E4    |"e"E4    |



